X:46
T:Top It Off
R:hop jig
D:Paddy Glackin: Ceol ar an bhFidil le Paddy Glackin
Z:id:hn-slipjig-46
M:9/8
K:D
A2F F2F d2A|Bcd e2c d2B|A2F F2F d2A|1 Bcd A2F D2B:|2 Bcd A2F D2g||
|:f2d d2d d2f|e2=c c2c c2e|1 d2B B2B B2d|^c2A AAA A2g:|2 d2A Bcd e2^c|d3 d3 d2B||
<end>
<start>
